X: 368
T:Plus n'estes ma maistresse
N: Derived from Jos2827-Plus_nestes_ma_maistresse.krn
C: Josquin des Prez
%%abc-version 2.0
%%abcx-abcm2ps-target-version 5.9.1 (29 Sep 2008)
%%abc-creator hum2abc beta
%%abcx-conversion-date 2019/02/12 16:15:54
%%abc-edited-by Jesse Rodin
%%abc-edited-by Jesse Rodin; Victoria Chang 2011/10/21
%%abcx-initial-encoding-date 2011/10/21/
%%humdrum-veritas 3108906923
%%humdrum-veritas-data 2723868782
%%linebreak <none>
%%barnumbers 0
L: 1/4
M: 2/1
Q: 1/2=120
%%staves [1 2 3 4]
V: 1 clef=treble
V: 2 clef=treble-8
V: 3 clef=treble-8
V: 4 clef=bass
K: C
[V:1] z8 | 
[V:2] A4d4- | 
[V:3] z8 | 
[V:4] z8 | 
[V:1] z4D4 | 
[V:2] d2d2d2d2 | 
[V:3] z8 | 
[V:4] z8 | 
[V:1] G6G2 | 
[V:2] e8 | 
[V:3] z8 | 
[V:4] z8 | 
[V:1] G2G2A4 | 
[V:2] c4f4 | 
[V:3] z4D4 | 
[V:4] z8 | 
[V:1] B3AG2c2- | 
[V:2] e2d4c2 | 
[V:3] G6G2 | 
[V:4] z8 | 
[V:1] c2B2c4- | 
[V:2] d4z2e2- | 
[V:3] G2G2A2G2- | 
[V:4] G,,4C,4- | 
[V:1] c8 | 
[V:2] e2e2e4 | 
[V:3] G2A2G2c2- | 
[V:4] C,2C,2C,2C,2 | 
[V:1] z4z2A2- | 
[V:2] f4e2A2 | 
[V:3] cBBAc4- | 
[V:4] D,4C,2F,2- | 
[V:1] A2G2A2c2- | 
[V:2] z2e2c3d | 
[V:3] c4A4 | 
[V:4] F,2E,2F,4 | 
[V:1] c2B2c2B2- | 
[V:2] e4e2e2 | 
[V:3] G8 | 
[V:4] E,8 | 
[V:1] B2A4^G2 | 
[V:2] dcBAB4 | 
[V:3] z8 | 
[V:4] z4z2E,2 | 
[V:1] A8 | 
[V:2] A8- | 
[V:3] z8 | 
[V:4] F,3E,D,2C,2 | 
[V:1] z2A4A2 | 
[V:2] A8 | 
[V:3] z2d2d2d2 | 
[V:4] D,4D,4 | 
[V:1] A2G2F2E2- | 
[V:2] z4A4 | 
[V:3] c2B2A4 | 
[V:4] z8 | 
[V:1] E2A2A2A2 | 
[V:2] E2E2F2F2 | 
[V:3] c4d2c2 | 
[V:4] A,,4D,3A,, | 
[V:1] G2F2E4 | 
[V:2] E2A4E2 | 
[V:3] e2d4^c2 | 
[V:4] C,2D,2A,,4 | 
[V:1] z8 | 
[V:2] F4E2A2- | 
[V:3] d4z4 | 
[V:4] D,4C,2A,,2 | 
[V:1] z4E4 | 
[V:2] A2^G2A2c2- | 
[V:3] d4c2A2 | 
[V:4] B,,2B,,2A,,4 | 
[V:1] E4z4 | 
[V:2] cde4d2- | 
[V:3] c2c2B2A2- | 
[V:4] A,4G,2F,2 | 
[V:1] G4F4- | 
[V:2] d^c^c2d2D2 | 
[V:3] A2G2A2d2 | 
[V:4] E,4D,4- | 
[V:1] F2EDE2F2 | 
[V:2] A6A2 | 
[V:3] d2d2c2A2 | 
[V:4] D,4A,,4- | 
[V:1] E2c3BA2- | 
[V:2] A2A2G2F2 | 
[V:3] c4d4 | 
[V:4] A,,4z4 | 
[V:1] A2G2A4- | 
[V:2] G4z2d2 | 
[V:3] B4A4- | 
[V:4] E,4F,4 | 
[V:1] A4z2A2 | 
[V:2] d2d2c3B | 
[V:3] A4z4 | 
[V:4] D,2F,6 | 
[V:1] A2A2G3F | 
[V:2] A4c4- | 
[V:3] z4z2G2 | 
[V:4] F,4C,4- | 
[V:1] E2E2F3E | 
[V:2] c4A4- | 
[V:3] G2G2F2D2 | 
[V:4] C,4D,4- | 
[V:1] D2F2E2D2- | 
[V:2] A4B4 | 
[V:3] F4G4 | 
[V:4] D,4G,,4 | 
[V:1] D2^CB,C4 | 
[V:2] A8 | 
[V:3] E4E4 | 
[V:4] A,,8 | 
[V:1] D8 | 
[V:2] F3ED4 | 
[V:3] D4F4 | 
[V:4] z4D,4 | 
[V:1] z8 | 
[V:2] C8 | 
[V:3] E4E2E2 | 
[V:4] G,6G,2 | 
[V:1] z8 | 
[V:2] G4c4- | 
[V:3] E2E2A4- | 
[V:4] G,2E,2F,4- | 
[V:1] z8 | 
[V:2] c4c2A2 | 
[V:3] A4z2D2 | 
[V:4] F,4E,2F,2 | 
[V:1] z8 | 
[V:2] B8 | 
[V:3] G3GG2E2 | 
[V:4] E,8 | 
[V:1] z4D4 | 
[V:2] A4B4 | 
[V:3] F8 | 
[V:4] z4D,4 | 
[V:1] G6G2 | 
[V:2] c8 | 
[V:3] E4z2G2 | 
[V:4] C,6C,2 | 
[V:1] G2E2F4- | 
[V:2] G4A4 | 
[V:3] c3cc2A2 | 
[V:4] C,2C,2F,3D, | 
[V:1] F4E4 | 
[V:2] F2D2A4 | 
[V:3] BAd4c2 | 
[V:4] D,4z4 | 
[V:1] z8 | 
[V:2] B2d4c2- | 
[V:3] B2A3GG2- | 
[V:4] z2F,3E,D,C, | 
[V:1] z4E4 | 
[V:2] c2B2c4- | 
[V:3] G2F2G4- | 
[V:4] D,4C,4- | 
[V:1] G6G2 | 
[V:2] c4z2G2 | 
[V:3] G4G4 | 
[V:4] C,2C,2C,4- | 
[V:1] G2E2F4- | 
[V:2] c3cc2A2 | 
[V:3] G4A4- | 
[V:4] C,4F,3D, | 
[V:1] F4E4 | 
[V:2] dcd4^c2 | 
[V:3] A2A2A2A2 | 
[V:4] D,4z4 | 
[V:1] z2A2A2B2 | 
[V:2] d2d3dd2 | 
[V:3] D4z4 | 
[V:4] z8 | 
[V:1] A2G4^F2 | 
[V:2] c2B2A4 | 
[V:3] z4z2d2 | 
[V:4] z4z2D,2 | 
[V:1] G4z2G2 | 
[V:2] G8 | 
[V:3] d2d2e3d | 
[V:4] G,,2G,,2C,3B,, | 
[V:1] G2G2F4 | 
[V:2] z2d2d2d2 | 
[V:3] c2B2A4 | 
[V:4] C,2G,,2D,4 | 
[V:1] G2E4F2 | 
[V:2] B2c3BA2 | 
[V:3] G4A2F2 | 
[V:4] E,4C,2D,2 | 
[V:1] EDF4ED | 
[V:2] G2A4B2 | 
[V:3] G2D2F2G2 | 
[V:4] G,,2D,4G,,2 | 
[V:1] ^C4D4- | 
[V:2] A4z2A2 | 
[V:3] E4D4- | 
[V:4] A,,4D,4- | 
[V:1] D4z4 | 
[V:2] d6d2 | 
[V:3] D8- | 
[V:4] D,2B,,2B,,4- | 
[V:1] D4G4- | 
[V:2] d4e4- | 
[V:3] D4z4 | 
[V:4] B,,4C,4- | 
[V:1] G2G2G2G2 | 
[V:2] e4c4 | 
[V:3] z8 | 
[V:4] C,2D,2E,4 | 
[V:1] A4B3A | 
[V:2] f4e2d2- | 
[V:3] D4G4- | 
[V:4] D,4z4 | 
[V:1] G2c4B2 | 
[V:2] d2c2d4 | 
[V:3] G2G2G2G2 | 
[V:4] z4G,,4 | 
[V:1] c8- | 
[V:2] z2e4e2 | 
[V:3] A2G4A2 | 
[V:4] C,6C,2 | 
[V:1] c4z4 | 
[V:2] e4f4 | 
[V:3] G2c4B2 | 
[V:4] C,2C,2D,4 | 
[V:1] z2A4G2 | 
[V:2] e2A3Bc2- | 
[V:3] c8 | 
[V:4] C,2F,4E,2 | 
[V:1] A2c4B2 | 
[V:2] c2A2G4- | 
[V:3] z2c2e4 | 
[V:4] F,4E,4- | 
[V:1] c2B3AA2- | 
[V:2] G4z4 | 
[V:3] e2e2dcBA | 
[V:4] E,4z4 | 
[V:1] A2^G2A4- | 
[V:2] z2G2c4 | 
[V:3] B4A3G | 
[V:4] z2E,2F,3E, | 
[V:1] A4z2A2- | 
[V:2] d2e2A2d2- | 
[V:3] F2E2F3G | 
[V:4] D,2C,2D,4 | 
[V:1] A2A2F2D2 | 
[V:2] d2^c2d4- | 
[V:3] E4z2D2 | 
[V:4] A,,4D,4- | 
[V:1] F3GE4- | 
[V:2] d4c2A2 | 
[V:3] A8 | 
[V:4] D,4A,,4- | 
[V:1] E8- | 
[V:2] c4B2A2- | 
[V:3] A4G2c2- | 
[V:4] A,,4z4 | 
[V:1] E8- | 
[V:2] A2G2A4- | 
[V:3] c2B2c4 | 
[V:4] z4A,,4- | 
[V:1] E8- | 
[V:2] A8- | 
[V:3] A8 | 
[V:4] A,,8- | 
[V:1] E8 |]  
[V:2] A8 |]  
[V:3] E8 |]  
[V:4] A,,8 |]  



